64x64/apps/com.remarkable.reMarkable.svg

<svg xmlns="http://www.w3.org/2000/svg" width="64" height="64" version="1">
 <rect style="opacity:0.2" width="56" height="56" x="4" y="5" rx="2.8" ry="2.8"/>
 <rect style="fill:#4f4f4f" width="56" height="56" x="4" y="4" rx="2.8" ry="2.8"/>
 <path style="opacity:0.2" d="M 47,20 38.378906,34.347656 29.277344,20.015625 H 23.056641 L 25,23.078125 V 42.728516 L 22.033203,45 H 25 28 29.951172 L 28,42.728516 V 28.076172 L 35.267578,39.564453 36.875,42.259766 47,25.392578 V 42.728516 L 44.861328,45 H 47 53 56.220703 L 53,42.728516 V 22.289062 l 3.220703,-2.273437 H 53 Z m -27.140625,8.005859 c -0.168211,-0.0079 -0.333888,-0.0068 -0.496094,0.0039 C 17.416811,28.137795 15.907907,29.34588 15,30.887937 V 28.019531 L 10,30.447266 7.7597656,31.474609 10,33.431641 v 9.291015 L 7.9160156,45 H 10 15 18.275391 L 15,42.722656 V 32.489499 c 1.774581,-0.428325 3.079172,-0.806642 5.095703,0.476563 l 1.353516,-4.6145 c -0.554836,-0.213132 -1.08521,-0.321927 -1.589844,-0.345703 z"/>
 <path style="fill:#f4f4f7" d="M 47,19 38.378906,33.347656 29.277344,19.015625 H 23.056641 L 25,22.078125 V 41.728516 L 22.033203,44 H 25 28 29.951172 L 28,41.728516 V 27.076172 L 35.267578,38.564453 36.875,41.259766 47,24.392578 V 41.728516 L 44.861328,44 H 47 53 56.220703 L 53,41.728516 V 21.289062 l 3.220703,-2.273437 H 53 Z m -27.140625,8.005859 c -0.168211,-0.0079 -0.333888,-0.0068 -0.496094,0.0039 C 17.416811,27.137795 15.907907,28.545834 15,30.087891 v -3.06836 L 10,29.447266 7.7597656,30.474609 10,32.431641 v 9.291015 L 7.9160156,44 H 10 15 18.275391 L 15,41.722656 V 31.489499 c 1.774581,-0.428325 3.079172,-0.806642 5.095703,0.476563 l 1.353516,-4.6145 c -0.554836,-0.213132 -1.08521,-0.321927 -1.589844,-0.345703 z"/>
 <path style="fill:#f4f4f7;opacity:0.1" d="M 6.8007812 4 C 5.2495813 4 4 5.2495813 4 6.8007812 L 4 7.8007812 C 4 6.2495813 5.2495813 5 6.8007812 5 L 57.199219 5 C 58.750419 5 60 6.2495813 60 7.8007812 L 60 6.8007812 C 60 5.2495813 58.750419 4 57.199219 4 L 6.8007812 4 z"/>
</svg>

<svg xmlns="http://www.w3.org/2000/svg" width="64" height="64" version="1"><rect style="opacity:.2" width="56" height="56" x="4" y="5" rx="2.8" ry="2.8"/><rect style="fill:#4f4f4f" width="56" height="56" x="4" y="4" rx="2.8" ry="2.8"/><path style="opacity:.2" d="m47 20-8.621 14.348-9.102-14.332h-6.22L25 23.078v19.65L22.033 45H29.951L28 42.729V28.076l7.268 11.488 1.607 2.696L47 25.393v17.336L44.861 45H56.22L53 42.729v-20.44l3.22-2.273H53zm-27.14 8.006a4.403 4.403 0 0 0-.497.004c-1.946.128-3.455 1.336-4.363 2.878V28.02l-5 2.427-2.24 1.028L10 33.432v9.29L7.916 45h10.359L15 42.723V32.489c1.775-.428 3.08-.806 5.096.477l1.353-4.614a5.085 5.085 0 0 0-1.59-.346z"/><path style="fill:#f4f4f7" d="m47 19-8.621 14.348-9.102-14.332h-6.22L25 22.078v19.65L22.033 44H29.951L28 41.729V27.076l7.268 11.488 1.607 2.696L47 24.393v17.336L44.861 44H56.22L53 41.729v-20.44l3.22-2.273H53zm-27.14 8.006a4.403 4.403 0 0 0-.497.004c-1.946.128-3.455 1.536-4.363 3.078V27.02l-5 2.427-2.24 1.028L10 32.432v9.29L7.916 44h10.359L15 41.723V31.489c1.775-.428 3.08-.806 5.096.477l1.353-4.614a5.085 5.085 0 0 0-1.59-.346z"/><path style="fill:#f4f4f7;opacity:.1" d="M6.8 4C5.25 4 4 5.25 4 6.8v1C4 6.25 5.25 5 6.8 5h50.4C58.75 5 60 6.25 60 7.8v-1C60 5.25 58.75 4 57.2 4H6.8z"/></svg>
